public/icons/listening.svg

<svg xmlns="http://www.w3.org/2000/svg" fill="none" viewBox="0 0 649 640">
  <g clip-path="url(#a)">
    <path fill="#2F2E41" d="M470.287 114.549c23.278 0 42.148-18.87 42.148-42.148 0-23.277-18.87-42.147-42.148-42.147-23.277 0-42.147 18.87-42.147 42.147 0 23.278 18.87 42.148 42.147 42.148Z"/>
    <path fill="#FFB6B6" d="m451.038 604.544-16.259-3.389 5.336-64.325 23.997 5.002-13.074 62.712Z"/>
    <path fill="#2F2E41" d="m452.78 596.19-17.2-4.66-2.75-.75-2.29 11.01-10.3 4.34-12.59 5.3-.02.01-4.77 2.01-.27.12a6.5 6.5 0 0 0-.46.22h-.01c-.1.05-.2.11-.3.16a7.223 7.223 0 0 0-2.04 1.77 7.04 7.04 0 0 0 .943 9.643 7.032 7.032 0 0 0 3.157 1.567l3.12.65 4.5.94 1.18.24 14.58 3.04v.01l7.22 1.5 7.54-9.8-.21 11.32 11.16 2.33.38.08.01-.08 4.86-39.49-5.44-1.48Z"/>
    <path fill="#FFB6B6" d="m535.928 587.822-14.252 8.528-39.675-50.912 21.033-12.586 32.894 54.97Z"/>
    <path fill="#2F2E41" d="m559.79 610.29-23.24-32.39-5 2.6-15.81 8.23-2.53 1.31 5.78 9.65-12.57 27.61a7.027 7.027 0 0 0 5.39 9.86c.683.1 1.377.1 2.06 0a6.872 6.872 0 0 0 2.56-.92l26.82-16.05-1.09-12.31 7.52 8.47 10.11-6.06Z"/>
    <path fill="#FFB8B8" d="m498.909 295.182-78.275-3.01-4.515-81.285h90.316l-7.526 84.295Z"/>
    <path fill="#FFB6B6" d="M548.593 350.965a12.542 12.542 0 0 1 .74-19.212l-14.211-42.229 22.385 5.916 10.064 39.194a12.609 12.609 0 0 1-10.657 19.644 12.613 12.613 0 0 1-8.321-3.313Z"/>
    <path fill="#FFB8B8" d="M463.85 116.375c16.462 0 29.808-13.346 29.808-29.809 0-16.462-13.346-29.808-29.808-29.808-16.463 0-29.809 13.346-29.809 29.808 0 16.463 13.346 29.809 29.809 29.809Z"/>
    <path fill="#2F2E41" d="m494.25 66-30.239-23.642L439.25 48l-9.95 34.263 14.812-.74 4.138-12.532v12.325l6.836-.341 3.966-19.951 2.48 21.239 24.298-.644 8.42-15.62Zm-75.121 208.108s-26.078 45.327-.901 114.1l69.542 177.325 33.246-19.654-33.889-76.342 27.566-93.445a162.423 162.423 0 0 0 5.751-65.387c-1.987-16.432-9.886-24.099-20.03-39.607-33.875 21.849-79.822 13.178-81.285 3.01Z"/>
    <path fill="#2F2E41" d="m453.788 456.036-23.211 107.821 33.577 6.33 19.121-90.639-29.487-23.512Z"/>
    <path fill="#E4E4E4" d="m484.835 124-38.539.514-12.543 15.927-20.194 4.762-5.248 30.328c-2.624 15.163.162 24.765 7.871 38.082l.923 26.198-1.02 1.854a4.245 4.245 0 0 0 1.28 5.522 8.678 8.678 0 0 0-.239 5.709l.498 1.644s1.435 11.484 82.811-.594a8.022 8.022 0 0 0 6.78-6.893 5.991 5.991 0 0 0 1.11-6.903l-.166-.332.836-.984a6.448 6.448 0 0 0 .326-7.923l11.695-83.662-24.159-7.524L484.835 124Z"/>
    <path fill="#E4E4E4" d="m511.368 155.257 9.648-8.008s8.577 2.536 14.568 19.431c5.99 16.895 26.546 145.06 26.546 145.06l-24.084-12.042-34.151-94.165 7.473-50.276Z"/>
    <path fill="#FFB6B6" d="M297.102 291.707a12.539 12.539 0 0 0 14.381-12.759l41.66-15.804-18.774-13.551-36.682 17.084a12.605 12.605 0 0 0-11.41 12.255 12.609 12.609 0 0 0 10.825 12.775Z"/>
    <path fill="#E4E4E4" d="m424.746 154.526-6.54-10.697s-8.937-.374-20.068 13.677c-5.707 7.203-42.689 68.989-42.689 68.989L321.25 255l28 10 33-14 37-61 5.496-35.474Z"/>
    <path fill="#2F2E41" d="M566.923 79.018c-8.778-9.952-14.324-22.26-20.062-34.224-5.738-11.965-11.995-24.054-21.77-33.028-9.775-8.975-23.86-14.357-36.558-10.503-12.698 3.854-21.85 18.992-16.466 31.12l.449 1.946c30.43 1.257 59.693 18.908 74.999 45.238 7.225 12.428 11.692 26.813 21.91 36.924a43.062 43.062 0 0 0 72.062-20.138c-25.17 10.379-56.554 3.083-74.564-17.335Z"/>
    <path fill="#F0F0F0" d="M327 391.14c0 7.022-.448 14.036-1.34 21H2.34a165.362 165.362 0 0 1-1.34-21 162.999 162.999 0 1 1 326 0Z"/>
    <path fill="#3F3D56" d="M164 555.14c-82.253 0-152.178-61.422-162.652-142.872A167.153 167.153 0 0 1 0 391.14a164.003 164.003 0 0 1 101.208-151.643 164.004 164.004 0 0 1 178.807 35.587A164.002 164.002 0 0 1 328 391.14a167.105 167.105 0 0 1-1.348 21.127C316.178 493.718 246.253 555.14 164 555.14Zm0-326c-75.566 0-142.12 53.501-158.253 127.214A162.75 162.75 0 0 0 2 391.14c.003 6.979.447 13.951 1.332 20.873C13.678 492.468 82.75 553.14 164 553.14s150.322-60.672 160.668-141.127A164.963 164.963 0 0 0 326 391.14a162.749 162.749 0 0 0-3.747-34.786C306.121 282.641 239.566 229.14 164 229.14Z"/>
    <path fill="#CACACA" d="M266.929 442.799H61.071a3.774 3.774 0 0 0-2.667 6.44 3.773 3.773 0 0 0 2.667 1.104h205.858c1-.001 1.957-.399 2.663-1.107a3.767 3.767 0 0 0 0-5.33 3.773 3.773 0 0 0-2.663-1.107Z"/>
    <path fill="#888" d="M196.516 442.799v7.544H61.071a3.77 3.77 0 0 1-2.663-6.437 3.775 3.775 0 0 1 2.663-1.107h135.445Z"/>
    <path fill="#A6A6A6" d="M196.516 454.115a7.544 7.544 0 1 0 0-15.088 7.544 7.544 0 0 0 0 15.088Z"/>
    <path fill="#585858" d="M164 517.864a18.868 18.868 0 0 1-17.426-11.644 18.865 18.865 0 0 1 4.089-20.555 18.864 18.864 0 0 1 20.555-4.089 18.863 18.863 0 0 1 11.644 17.426A18.884 18.884 0 0 1 164 517.864Zm0-36.273a17.406 17.406 0 0 0-16.085 10.748 17.409 17.409 0 0 0 22.748 22.748 17.413 17.413 0 0 0 10.748-16.085A17.428 17.428 0 0 0 164 481.591Z"/>
    <path fill="#585858" d="M161.509 509.158a.726.726 0 0 1-.725-.725v-18.862a.713.713 0 0 1 .212-.513.722.722 0 0 1 .791-.157.718.718 0 0 1 .392.393.714.714 0 0 1 .056.277v18.862a.727.727 0 0 1-.726.725Zm4.982 0a.726.726 0 0 1-.725-.725v-18.862a.713.713 0 0 1 .212-.513.733.733 0 0 1 .791-.157.718.718 0 0 1 .392.393.714.714 0 0 1 .056.277v18.862a.727.727 0 0 1-.726.725Z"/>
    <path fill="#3F3D56" d="M77.61 499.002a18.864 18.864 0 0 1 22.541-18.499 18.864 18.864 0 0 1 13.746 25.717 18.863 18.863 0 0 1-17.426 11.644 18.885 18.885 0 0 1-18.862-18.862Zm1.45 0a17.41 17.41 0 1 0 17.41-17.411 17.435 17.435 0 0 0-17.41 17.411Z"/>
    <path fill="#3F3D56" d="M104.618 505.352a.6.6 0 0 0 .583-.447.605.605 0 0 0-.281-.678l-9.05-5.225 9.05-5.225a.602.602 0 0 0 .219-.823.606.606 0 0 0-.822-.222l-9.955 5.747a.61.61 0 0 0-.301.523.606.606 0 0 0 .301.523l9.955 5.747c.091.053.195.08.301.08Zm-13.348 2.096a.604.604 0 0 0 .604-.603v-15.686a.598.598 0 0 0-.372-.559.595.595 0 0 0-.659.131.598.598 0 0 0-.176.428v15.686a.601.601 0 0 0 .604.603Zm140.259 10.416a18.868 18.868 0 0 1-17.426-11.644 18.865 18.865 0 0 1 4.089-20.555 18.863 18.863 0 0 1 32.199 13.337 18.884 18.884 0 0 1-18.862 18.862Zm0-36.273a17.408 17.408 0 0 0-16.085 10.748 17.409 17.409 0 0 0 22.748 22.748 17.408 17.408 0 0 0 10.748-16.085 17.428 17.428 0 0 0-17.411-17.411Z"/>
    <path fill="#3F3D56" d="M223.382 505.352a.602.602 0 0 1-.302-1.125l9.05-5.225-9.05-5.225a.602.602 0 0 1-.219-.823.605.605 0 0 1 .823-.222l9.954 5.747c.091.053.168.13.221.221a.614.614 0 0 1 0 .604.616.616 0 0 1-.221.221l-9.954 5.747a.604.604 0 0 1-.302.08Zm13.348 2.096a.605.605 0 0 1-.604-.603v-15.686c0-.079.015-.158.046-.231a.593.593 0 0 1 .326-.328.597.597 0 0 1 .659.131.596.596 0 0 1 .176.428v15.686a.603.603 0 0 1-.603.603Z"/>
    <path fill="#fff" d="M201.441 375.64h-48.882a12.07 12.07 0 0 1-12.059-12.059v-48.882a12.074 12.074 0 0 1 12.059-12.059h48.882a12.07 12.07 0 0 1 12.059 12.059v48.882a12.07 12.07 0 0 1-12.059 12.059Z"/>
    <path fill="#fff" d="M182.441 361.14h-48.882A12.57 12.57 0 0 1 121 348.581v-48.882a12.572 12.572 0 0 1 12.559-12.559h48.882A12.575 12.575 0 0 1 195 299.699v48.882a12.573 12.573 0 0 1-12.559 12.559Zm-48.882-72A10.575 10.575 0 0 0 123 299.699v48.882a10.57 10.57 0 0 0 10.559 10.559h48.882A10.568 10.568 0 0 0 193 348.581v-48.882a10.57 10.57 0 0 0-10.559-10.559h-48.882Z"/>
  </g>
  <defs>
    <clipPath id="a">
      <path fill="#fff" d="M0 0h649v640H0z"/>
    </clipPath>
  </defs>
</svg>

<svg width="649" height="640" viewBox="0 0 649 640" fill="none" xmlns="http://www.w3.org/2000/svg">
<g clip-path="url(#clip0_301_2)">
<path d="M470.287 114.549C493.565 114.549 512.435 95.6789 512.435 72.4013C512.435 49.1238 493.565 30.2537 470.287 30.2537C447.01 30.2537 428.14 49.1238 428.14 72.4013C428.14 95.6789 447.01 114.549 470.287 114.549Z" fill="#2F2E41"/>
<path d="M451.038 604.544L434.779 601.155L440.115 536.83L464.112 541.832L451.038 604.544Z" fill="#FFB6B6"/>
<path d="M452.78 596.19L435.58 591.53L432.83 590.78L430.54 601.79L420.24 606.13L407.65 611.43L407.63 611.44L402.86 613.45L402.59 613.57C402.43 613.64 402.28 613.71 402.13 613.79H402.12C402.02 613.84 401.92 613.9 401.82 613.95C401.035 614.406 400.343 615.007 399.78 615.72C399.047 616.662 398.564 617.775 398.379 618.954C398.194 620.133 398.312 621.34 398.722 622.462C399.132 623.583 399.821 624.581 400.723 625.363C401.625 626.145 402.712 626.684 403.88 626.93L407 627.58L411.5 628.52L412.68 628.76L427.26 631.8V631.81L434.48 633.31L442.02 623.51L441.81 634.83L452.97 637.16L453.35 637.24L453.36 637.16L458.22 597.67L452.78 596.19Z" fill="#2F2E41"/>
<path d="M535.928 587.822L521.676 596.35L482.001 545.438L503.034 532.852L535.928 587.822Z" fill="#FFB6B6"/>
<path d="M559.79 610.29L536.55 577.9L531.55 580.5L515.74 588.73L513.21 590.04L518.99 599.69L506.42 627.3C505.969 628.292 505.755 629.376 505.795 630.466C505.835 631.555 506.128 632.62 506.651 633.577C507.174 634.534 507.912 635.355 508.808 635.977C509.703 636.599 510.731 637.004 511.81 637.16C512.493 637.26 513.187 637.26 513.87 637.16C514.776 637.027 515.647 636.714 516.43 636.24L543.25 620.19L542.16 607.88L549.68 616.35L559.79 610.29Z" fill="#2F2E41"/>
<path d="M498.909 295.182L420.634 292.172L416.119 210.887H506.435L498.909 295.182Z" fill="#FFB8B8"/>
<path d="M548.593 350.965C547.234 349.735 546.162 348.221 545.451 346.532C544.74 344.843 544.408 343.018 544.478 341.186C544.549 339.354 545.02 337.561 545.859 335.931C546.698 334.301 547.884 332.875 549.333 331.753L535.122 289.524L557.507 295.44L567.571 334.634C569.294 337.195 570.018 340.298 569.606 343.356C569.194 346.415 567.675 349.216 565.336 351.229C562.996 353.242 560 354.326 556.914 354.278C553.829 354.229 550.868 353.05 548.593 350.965Z" fill="#FFB6B6"/>
<path d="M463.85 116.375C480.312 116.375 493.658 103.029 493.658 86.5664C493.658 70.1036 480.312 56.7578 463.85 56.7578C447.387 56.7578 434.041 70.1036 434.041 86.5664C434.041 103.029 447.387 116.375 463.85 116.375Z" fill="#FFB8B8"/>
<path d="M494.25 65.9999L464.011 42.3579L439.25 47.9999L429.3 82.2629L444.112 81.5229L448.25 68.9909V81.3159L455.086 80.9749L459.052 61.0239L461.532 82.2629L485.83 81.6189L494.25 65.9999Z" fill="#2F2E41"/>
<path d="M419.129 274.108C419.129 274.108 393.051 319.435 418.228 388.208L487.77 565.533L521.016 545.879L487.127 469.537L514.693 376.092C521.04 354.915 522.997 332.665 520.444 310.705C518.457 294.273 510.558 286.606 500.414 271.098C466.539 292.947 420.592 284.276 419.129 274.108Z" fill="#2F2E41"/>
<path d="M453.788 456.036L430.577 563.857L464.154 570.187L483.275 479.548L453.788 456.036Z" fill="#2F2E41"/>
<path d="M484.835 124L446.296 124.514L433.753 140.441L413.559 145.203L408.311 175.531C405.687 190.694 408.473 200.296 416.182 213.613L417.105 239.811L416.085 241.665C415.58 242.582 415.432 243.652 415.668 244.671C415.905 245.69 416.509 246.586 417.365 247.187C416.643 249.009 416.559 251.021 417.126 252.896L417.624 254.54C417.624 254.54 419.059 266.024 500.435 253.946C502.16 253.69 503.756 252.879 504.98 251.635C506.203 250.392 506.988 248.783 507.215 247.053C508.1 246.163 508.682 245.019 508.881 243.78C509.08 242.542 508.886 241.272 508.325 240.15L508.159 239.818L508.995 238.834C509.924 237.739 510.462 236.364 510.521 234.929C510.58 233.493 510.157 232.079 509.321 230.911L521.016 147.249L496.857 139.725L484.835 124Z" fill="#E4E4E4"/>
<path d="M511.368 155.257L521.016 147.249C521.016 147.249 529.593 149.785 535.584 166.68C541.574 183.575 562.13 311.74 562.13 311.74L538.046 299.698L503.895 205.533L511.368 155.257Z" fill="#E4E4E4"/>
<path d="M297.102 291.707C298.915 291.977 300.765 291.847 302.522 291.324C304.279 290.802 305.9 289.901 307.271 288.685C308.643 287.468 309.73 285.966 310.458 284.284C311.186 282.601 311.536 280.78 311.483 278.948L353.143 263.144L334.369 249.593L297.687 266.677C294.614 266.969 291.756 268.378 289.653 270.637C287.55 272.896 286.349 275.847 286.277 278.932C286.205 282.018 287.267 285.022 289.262 287.377C291.257 289.731 294.047 291.272 297.102 291.707Z" fill="#FFB6B6"/>
<path d="M424.746 154.526L418.206 143.829C418.206 143.829 409.269 143.455 398.138 157.506C392.431 164.709 355.449 226.495 355.449 226.495L321.25 255L349.25 265L382.25 251L419.25 190L424.746 154.526Z" fill="#E4E4E4"/>
<path d="M566.923 79.0179C558.145 69.0664 552.599 56.7584 546.861 44.7935C541.123 32.8286 534.866 20.74 525.091 11.7656C515.316 2.79114 501.231 -2.59095 488.533 1.263C475.835 5.11695 466.683 20.255 472.067 32.383L472.516 34.3289C502.946 35.5864 532.209 53.2371 547.515 79.567C554.74 91.9947 559.207 106.38 569.425 116.491C574.827 121.836 581.546 125.657 588.902 127.566C596.258 129.474 603.988 129.402 611.307 127.356C618.625 125.311 625.273 121.365 630.573 115.92C635.874 110.475 639.64 103.724 641.487 96.3528C616.317 106.732 584.933 99.4359 566.923 79.0179Z" fill="#2F2E41"/>
<path d="M327 391.14C327 398.162 326.552 405.176 325.66 412.14H2.3399C1.44794 405.176 1.00042 398.162 1.00006 391.14C0.981684 369.723 5.18425 348.512 13.3675 328.72C21.5508 308.928 33.5544 290.942 48.6922 275.792C63.83 260.641 81.8051 248.622 101.59 240.422C121.376 232.221 142.583 228 164 228C185.417 228 206.625 232.221 226.41 240.422C246.195 248.622 264.17 260.641 279.308 275.792C294.446 290.942 306.449 308.928 314.633 328.72C322.816 348.512 327.018 369.723 327 391.14Z" fill="#F0F0F0"/>
<path d="M164 555.14C81.7473 555.14 11.822 493.718 1.34807 412.268C0.45274 405.261 0.00249708 398.204 6.00055e-05 391.14C-0.0183726 369.592 4.21001 348.251 12.4435 328.337C20.677 308.424 32.7543 290.328 47.9849 275.084C63.2156 259.84 81.301 247.748 101.208 239.497C121.114 231.247 142.451 227 164 227C185.549 227 206.886 231.247 226.793 239.497C246.699 247.748 264.785 259.84 280.015 275.084C295.246 290.328 307.323 308.424 315.557 328.337C323.79 348.251 328.019 369.592 328 391.14C327.998 398.204 327.547 405.261 326.652 412.267C316.178 493.718 246.253 555.14 164 555.14ZM164 229.14C88.4341 229.14 21.8792 282.641 5.74701 356.354C3.25166 367.781 1.99542 379.444 2.00006 391.14C2.00251 398.119 2.44734 405.091 3.33185 412.013C13.6778 492.468 82.7502 553.14 164 553.14C245.25 553.14 314.322 492.468 324.668 412.013C325.553 405.091 325.998 398.119 326 391.14C326.005 379.444 324.748 367.781 322.253 356.354C306.121 282.641 239.566 229.14 164 229.14Z" fill="#3F3D56"/>
<path d="M266.929 442.799H61.071C60.0705 442.799 59.1111 443.197 58.4037 443.904C57.6962 444.611 57.2988 445.571 57.2988 446.571C57.2988 447.572 57.6962 448.531 58.4037 449.239C59.1111 449.946 60.0705 450.343 61.071 450.343H266.929C267.929 450.342 268.886 449.944 269.592 449.236C270.299 448.529 270.695 447.571 270.695 446.571C270.695 445.572 270.299 444.613 269.592 443.906C268.886 443.199 267.929 442.801 266.929 442.799Z" fill="#CACACA"/>
<path d="M196.516 442.799V450.343H61.071C60.0717 450.342 59.1138 449.944 58.4077 449.236C57.7016 448.529 57.3051 447.571 57.3051 446.571C57.3051 445.572 57.7016 444.613 58.4077 443.906C59.1138 443.199 60.0717 442.801 61.071 442.799H196.516Z" fill="#888888"/>
<path d="M196.516 454.115C200.683 454.115 204.06 450.738 204.06 446.571C204.06 442.405 200.683 439.027 196.516 439.027C192.349 439.027 188.972 442.405 188.972 446.571C188.972 450.738 192.349 454.115 196.516 454.115Z" fill="#A6A6A6"/>
<path d="M164 517.864C160.27 517.864 156.623 516.757 153.521 514.685C150.419 512.612 148.002 509.667 146.574 506.22C145.147 502.774 144.773 498.981 145.501 495.322C146.229 491.663 148.025 488.303 150.663 485.665C153.301 483.027 156.662 481.231 160.32 480.503C163.979 479.775 167.772 480.149 171.218 481.576C174.665 483.004 177.61 485.421 179.683 488.523C181.756 491.625 182.862 495.272 182.862 499.002C182.856 504.003 180.867 508.797 177.331 512.333C173.795 515.869 169.001 517.858 164 517.864ZM164 481.591C160.557 481.591 157.19 482.612 154.327 484.526C151.464 486.439 149.232 489.158 147.915 492.339C146.597 495.521 146.252 499.021 146.924 502.399C147.596 505.776 149.254 508.878 151.689 511.313C154.124 513.748 157.226 515.406 160.603 516.078C163.981 516.75 167.482 516.405 170.663 515.087C173.844 513.77 176.563 511.538 178.477 508.675C180.39 505.812 181.411 502.446 181.411 499.002C181.406 494.386 179.57 489.961 176.306 486.697C173.042 483.433 168.616 481.597 164 481.591Z" fill="#585858"/>
<path d="M161.509 509.158C161.317 509.158 161.132 509.082 160.996 508.946C160.86 508.81 160.784 508.625 160.784 508.433V489.571C160.784 489.476 160.802 489.382 160.839 489.294C160.875 489.206 160.929 489.126 160.996 489.058C161.064 488.991 161.143 488.937 161.232 488.901C161.32 488.864 161.414 488.846 161.509 488.846C161.604 488.846 161.699 488.864 161.787 488.901C161.875 488.937 161.955 488.991 162.022 489.058C162.089 489.126 162.143 489.206 162.179 489.294C162.216 489.382 162.235 489.476 162.235 489.571V508.433C162.235 508.625 162.158 508.81 162.022 508.946C161.886 509.082 161.702 509.158 161.509 509.158Z" fill="#585858"/>
<path d="M166.491 509.158C166.299 509.158 166.114 509.082 165.978 508.946C165.842 508.81 165.766 508.625 165.766 508.433V489.571C165.766 489.476 165.784 489.382 165.821 489.294C165.857 489.206 165.911 489.126 165.978 489.058C166.046 488.991 166.126 488.937 166.214 488.901C166.302 488.864 166.396 488.846 166.491 488.846C166.586 488.846 166.681 488.864 166.769 488.901C166.857 488.937 166.937 488.991 167.004 489.058C167.072 489.126 167.125 489.206 167.161 489.294C167.198 489.382 167.217 489.476 167.217 489.571V508.433C167.217 508.625 167.14 508.81 167.004 508.946C166.868 509.082 166.684 509.158 166.491 509.158Z" fill="#585858"/>
<path d="M77.6093 499.002C77.6093 495.272 78.7155 491.625 80.788 488.523C82.8606 485.421 85.8064 483.004 89.2529 481.576C92.6994 480.149 96.4918 479.775 100.151 480.503C103.809 481.231 107.17 483.027 109.808 485.665C112.446 488.303 114.242 491.663 114.97 495.322C115.698 498.981 115.324 502.774 113.897 506.22C112.469 509.667 110.052 512.612 106.95 514.685C103.848 516.757 100.201 517.864 96.4709 517.864C91.4702 517.858 86.676 515.869 83.14 512.333C79.6039 508.797 77.6149 504.003 77.6093 499.002ZM79.0602 499.002C79.0602 502.446 80.0813 505.812 81.9944 508.675C83.9075 511.538 86.6267 513.77 89.8081 515.087C92.9895 516.405 96.4903 516.75 99.8676 516.078C103.245 515.406 106.347 513.748 108.782 511.313C111.217 508.878 112.875 505.776 113.547 502.399C114.219 499.021 113.874 495.521 112.556 492.339C111.239 489.158 109.007 486.439 106.144 484.526C103.281 482.612 99.9144 481.591 96.4709 481.591C91.8549 481.597 87.4294 483.433 84.1654 486.697C80.9014 489.961 79.0654 494.386 79.0602 499.002Z" fill="#3F3D56"/>
<path d="M104.618 505.352C104.751 505.352 104.88 505.309 104.985 505.228C105.091 505.147 105.166 505.034 105.201 504.905C105.235 504.777 105.227 504.641 105.176 504.518C105.125 504.396 105.035 504.293 104.92 504.227L95.8706 499.002L104.92 493.777C105.058 493.697 105.158 493.565 105.199 493.411C105.24 493.257 105.219 493.093 105.139 492.954C105.059 492.816 104.928 492.715 104.774 492.673C104.62 492.632 104.455 492.653 104.317 492.732L94.3624 498.479C94.2707 498.532 94.1946 498.609 94.1416 498.7C94.0887 498.792 94.0608 498.896 94.0608 499.002C94.0608 499.108 94.0887 499.212 94.1416 499.304C94.1946 499.395 94.2707 499.472 94.3624 499.525L104.317 505.272C104.408 505.325 104.512 505.352 104.618 505.352Z" fill="#3F3D56"/>
<path d="M91.2707 507.448C91.4307 507.448 91.5841 507.384 91.6972 507.271C91.8104 507.158 91.8739 507.005 91.8739 506.845V491.159C91.8743 491.08 91.8589 491.001 91.8287 490.928C91.7986 490.854 91.7542 490.787 91.6981 490.731C91.6421 490.675 91.5754 490.63 91.5021 490.6C91.4287 490.569 91.3501 490.553 91.2707 490.553C91.1912 490.553 91.1126 490.569 91.0392 490.6C90.9659 490.63 90.8993 490.675 90.8432 490.731C90.7872 490.787 90.7428 490.854 90.7126 490.928C90.6824 491.001 90.667 491.08 90.6674 491.159V506.845C90.6674 507.005 90.7309 507.158 90.8441 507.271C90.9572 507.384 91.1107 507.448 91.2707 507.448Z" fill="#3F3D56"/>
<path d="M231.529 517.864C227.799 517.864 224.152 516.757 221.05 514.685C217.949 512.612 215.531 509.667 214.103 506.22C212.676 502.774 212.302 498.981 213.03 495.322C213.758 491.663 215.554 488.303 218.192 485.665C220.83 483.027 224.191 481.231 227.85 480.503C231.508 479.775 235.301 480.149 238.747 481.576C242.194 483.004 245.14 485.421 247.212 488.523C249.285 491.625 250.391 495.272 250.391 499.002C250.385 504.003 248.396 508.797 244.86 512.333C241.324 515.869 236.53 517.858 231.529 517.864ZM231.529 481.591C228.086 481.591 224.72 482.612 221.856 484.526C218.993 486.439 216.762 489.158 215.444 492.339C214.126 495.521 213.781 499.021 214.453 502.399C215.125 505.776 216.783 508.878 219.218 511.313C221.653 513.748 224.755 515.406 228.133 516.078C231.51 516.75 235.011 516.405 238.192 515.087C241.373 513.77 244.093 511.538 246.006 508.675C247.919 505.812 248.94 502.446 248.94 499.002C248.935 494.386 247.099 489.961 243.835 486.697C240.571 483.433 236.145 481.597 231.529 481.591Z" fill="#3F3D56"/>
<path d="M223.382 505.352C223.25 505.352 223.12 505.309 223.015 505.228C222.909 505.147 222.834 505.034 222.799 504.905C222.765 504.777 222.774 504.641 222.824 504.518C222.875 504.396 222.965 504.293 223.08 504.227L232.13 499.002L223.08 493.777C222.942 493.697 222.842 493.565 222.801 493.411C222.76 493.257 222.781 493.093 222.861 492.954C222.941 492.816 223.072 492.715 223.227 492.673C223.381 492.632 223.545 492.653 223.684 492.732L233.638 498.479C233.729 498.532 233.806 498.609 233.859 498.7C233.911 498.792 233.939 498.896 233.939 499.002C233.939 499.108 233.911 499.212 233.859 499.304C233.806 499.395 233.729 499.472 233.638 499.525L223.684 505.272C223.592 505.325 223.488 505.352 223.382 505.352Z" fill="#3F3D56"/>
<path d="M236.73 507.448C236.57 507.448 236.416 507.384 236.303 507.271C236.19 507.158 236.126 507.005 236.126 506.845V491.159C236.126 491.08 236.141 491.001 236.172 490.928C236.202 490.854 236.246 490.787 236.302 490.731C236.358 490.675 236.425 490.63 236.498 490.6C236.572 490.569 236.65 490.553 236.73 490.553C236.809 490.553 236.888 490.569 236.961 490.6C237.034 490.63 237.101 490.675 237.157 490.731C237.213 490.787 237.258 490.854 237.288 490.928C237.318 491.001 237.333 491.08 237.333 491.159V506.845C237.333 507.005 237.269 507.158 237.156 507.271C237.043 507.384 236.89 507.448 236.73 507.448Z" fill="#3F3D56"/>
<path d="M201.441 375.64H152.559C149.362 375.637 146.297 374.365 144.036 372.104C141.775 369.844 140.504 366.778 140.5 363.581V314.699C140.504 311.502 141.775 308.437 144.036 306.176C146.297 303.916 149.362 302.644 152.559 302.64H201.441C204.638 302.644 207.703 303.916 209.964 306.176C212.225 308.437 213.497 311.502 213.5 314.699V363.581C213.497 366.778 212.225 369.844 209.964 372.104C207.703 374.365 204.638 375.637 201.441 375.64Z" fill="white"/>
<path d="M182.441 361.14H133.559C130.229 361.137 127.037 359.812 124.683 357.458C122.328 355.103 121.004 351.911 121 348.581V299.699C121.004 296.37 122.328 293.177 124.683 290.823C127.037 288.469 130.229 287.144 133.559 287.14H182.441C185.771 287.144 188.963 288.469 191.318 290.823C193.672 293.177 194.996 296.37 195 299.699V348.581C194.996 351.911 193.672 355.103 191.318 357.458C188.963 359.812 185.771 361.137 182.441 361.14ZM133.559 289.14C130.76 289.144 128.076 290.257 126.096 292.237C124.117 294.216 123.003 296.9 123 299.699V348.581C123.003 351.381 124.117 354.065 126.096 356.044C128.076 358.024 130.76 359.137 133.559 359.14H182.441C185.241 359.137 187.924 358.024 189.904 356.044C191.883 354.065 192.997 351.381 193 348.581V299.699C192.997 296.9 191.883 294.216 189.904 292.237C187.924 290.257 185.241 289.144 182.441 289.14H133.559Z" fill="white"/>
</g>
<defs>
<clipPath id="clip0_301_2">
<rect width="649" height="640" fill="white"/>
</clipPath>
</defs>
</svg>
